packages/design-system/src/icons/assets/logo_symbol.svg

<svg width="30" height="31" viewBox="0 0 30 31" fill="none" xmlns="http://www.w3.org/2000/svg">
<path fill-rule="evenodd" clip-rule="evenodd" d="M22.774 2.44772L18.5872 6.64461V0.800049H11.051V6.64461L6.99862 2.58243L1.66437 7.91922L5.60303 11.8674H0V15.3182H11.3198C12.0434 15.3182 12.7671 15.142 13.3356 14.6861C14.7726 13.5462 15.0207 11.3493 15.0207 7.13166C15.0207 11.3493 15.2688 13.5462 16.7057 14.6861C17.2743 15.1317 18.0083 15.3182 18.7216 15.3182H29.9897V11.9607L29.8966 11.8674H24.0248L28.0979 7.7845L22.7636 2.43735L22.774 2.44772ZM30 16.2716H18.9697C18.4838 16.2716 17.9876 16.3648 17.5431 16.5617C15.3618 17.5462 15.031 19.6602 15.031 24.5824C15.031 21.4529 14.5762 19.3182 13.8318 17.9814C13.2219 16.8933 12.0331 16.2716 10.7822 16.2716H0V19.4322H5.83046L1.68504 23.5876L7.0193 28.9348L11.051 24.8933V30.8H18.5872V24.8933L22.867 29.1835H22.8877L28.2012 23.8467L23.8077 19.4425H30V16.2819V16.2716Z" fill="#B5F602"/>
</svg>

<svg xmlns="http://www.w3.org/2000/svg" width="30" height="31" fill="none"><path fill="#B5F602" fill-rule="evenodd" d="m22.774 2.448-4.187 4.197V.8h-7.536v5.845L6.999 2.582 1.664 7.92l3.939 3.948H0v3.451h11.32c.723 0 1.447-.176 2.016-.632 1.437-1.14 1.685-3.337 1.685-7.554 0 4.217.248 6.414 1.685 7.554.568.446 1.302.632 2.016.632H29.99v-3.357l-.093-.094h-5.872l4.073-4.083-5.334-5.347zM30 16.272H18.97a3.55 3.55 0 0 0-1.427.29c-2.181.984-2.512 3.098-2.512 8.02 0-3.13-.455-5.264-1.2-6.6-.61-1.089-1.798-1.71-3.049-1.71H0v3.16h5.83l-4.145 4.156 5.334 5.347 4.032-4.042V30.8h7.536v-5.907l4.28 4.29h.02l5.314-5.336-4.393-4.405H30z" clip-rule="evenodd"/></svg>
